X:1
T:Everlasting Life
T:William Augustine Ogden, 1889
T:Everlasting Life
T:Public Domain
T:Public Domain
C:William Augustine Ogden, 1889
Z:Public Domain
%%score ( 1 2 ) ( 3 4 )
L:1/8
M:4/4
K:A
V:1 treble 
V:2 treble 
V:3 bass 
V:4 bass 
V:1
 [Ec]>[Ec] [Ec]>[Ec] [Ec]2 [CE]>[CA] | [Ec]2 [Ec]2 [Ec]2 [Fd]>[Ec] | [DB]4- [DB]>[FA] [EG]>[DF] | %3
w: 1.~“Ev- er- last- ing life!” is the|prom- ise giv’n un- to|them * Who love the|
w: 2.~“Ev- er- last- ing life!” shout it|far and wide, Bless- èd|tid- * ings of sal-|
w: 3.~“Ev- er- last- ing life!” there is|naught to do but to|take * The words He|
 [CE]2 [CE]2 (z3/2 E/ A>B) | [Ec]>[Ec] [Ec]>[Ec] [Ec]2 [CE]>[CA] | [Ec]2 [Ec]2 [Ec]2 c>e | %6
w: Sav- ior * * *|“Ev- er- last- ing life!” and a|home in Heav’n, If you|
w: va- tion * * *|“Ev- er- last- ing life!” thro’ His|blood ap- plied, To the|
w: gives you * * *|“Ev- er- last- ing life!” pre- cious|gift for you, Thro’ the|
 (z2 F>F [Fd]>)[Fd] [Fc]>[Fd] | ([Ee]2 [F^d]2 [G=d]2) ||"^Refrain" [Ec]>[DB] | %9
w: * * * will be- lieve|name. * *|Then be-|
w: * * * sin- ner in|woe. * *||
w: * * * Sav- ior cru-|fied. * *||
 [CA]4 [CE]2 [Ec]>[DB] | [CA]4 [CE]2 [DB]>[CA] | [DG]4 [DE]2 [Ec]>[DB] | [CA]4 [CE]2 [Ec]>[DB] | %13
w: lieve Him! O re-|ceive Him! Bless- èd|Sav- ior, king- ly|fa- vor. Give Him|
w: ||||
w: ||||
 [CA]4 [CE]2 [Ec]>[CA] | [DF]4 D2 [Fd]>[Fd] | [Ec]2 [Ec]2 [DB]>[F^A] [DB]>[Ec] | [CA]6 z2 |] %17
w: ev- er best en-|dea- vor, For with|is ev- er- last- ing life!||
w: ||||
w: ||||
V:2
 x8 | x8 | x8 | x4 [A,C]2 x2 | x8 | x8 | d4- x4 | x6 || x2 | x8 | x8 | x8 | x8 | x8 | x4 D2 x2 | %15
w: |||dear.|||His||||||||Him|
w: |||free.|||his|||||||||
w: |||now.|||ci-|||||||||
 x8 | x8 |] %17
w: ||
w: ||
w: ||
V:3
 [A,,A,]>[A,,A,] [A,,A,]>[A,,A,] [A,,A,]2 [A,,A,]>[A,,A,] | [A,,A,]2 [A,,A,]2 [A,,A,]2 A,,2 | %2
w: ~ ~ ~ ~ ~ ~ ~|~ ~ ~ ~|
 (E,2 [E,G,]>[E,G,] [E,B,]>)[E,B,] [E,B,]>[E,G,] | [A,,A,]2 [A,,A,]2 [A,,E,]4 | %4
w: ~ * * * ~ ~ ~|~ ~ ~|
 [A,,A,]>[A,,A,] [A,,A,]>[A,,A,] [A,,A,]2 [A,,A,]>[A,,A,] | [A,,A,]2 [A,,A,]2 [A,,A,]2 A,,2 | %6
w: ~ ~ ~ ~ ~ ~ ~|~ ~ ~ ~|
 (B,,2 [B,,A,]>[B,,A,] [B,,A,]>)[B,,A,] [B,,A,]>[B,,A,] | ([E,G,]2 [E,A,]2 [E,B,]2) || E,2 | %9
w: ~ * * * ~ ~ ~|Then * *|be-|
 A,,2 [A,,E,]>[A,,E,] [A,,A,]2 E,2 | A,,2 [A,,E,]>[A,,E,] [A,,A,]2 E,2- | %11
w: ~ ~ Him re- ceive|èd Sav- ior, King of|
 E,2 [E,B,]>[E,B,] [E,G,]2 [E,G,]2 | [A,,A,]2 [A,,E,]2 [A,,A,]2 E,2 | %13
w: * ~ Ev- er giv’n|~ ~ ~ trust|
 A,,2 [A,,E,]>[A,,E,] [A,,A,]2 A,,2 | D,2 [D,A,]>[D,A,] [D,F,]2 [D,A,]>[D,A,] | %15
w: live, * * * *||
 [E,A,]2 [E,A,]2 [E,G,]>[E,F,] [E,G,]>[E,G,] | [A,,A,]6 z2 |] %17
w: ||
V:4
 x8 | x6 A,,2 | x8 | x8 | x8 | x6 A,,2 | B,,2 x6 | x6 || E,2 | A,,2 x2 E,2 x2 | A,,2 x6 | x8 | %12
w: |~||||~|~||lieve,|~ Bless-|grace||
 x6 E,2 | A,,2 x2 A,,2 x2 | D,2 x6 | x8 | x8 |] %17
w: and|||||

